X: 1349
T: Cock of the North
B: australian traditional tunes wiki
B: nick
M:6/8
L:1/8
R: Jig
Q: 3/8=100
K:G
V:1 
GA|:"G"G2B BAG|B2dd2g|B2B BAG|"D"A3 ABA|"G"G2B BAG|B2dd2g|B2B"D" AFA|"G"G3 dBd|
"G"g2d "C"e2d|"G"g2d "C"e2g|"G"B2B BAG|"D"A3-A2d|"G"g2d "C"e2d|"G"g2d "C"e2g|"G"B2B "D"AFA|"G"G3DEF|
"G"G2B BAG|B2dd2g|B2B BAG|"D"A3- ABA|"G"G2B BAG|B2dd2g|B2B"D" AFA|"G"G3 z3:|
% abcbook-tune_id 6342d53a0c6306db58169d65


% abcbook-boost 0
% abcbook-tablature 
% abcbook-transpose 
% abcbook-lastupdated 1665490929398
% abcbook-soundfonts 
% abcbook-repeats 1
% NFF Book 2020

